common/src/main/resources/glyphs/plugins/resharper/FileLayout/Nested.svg

<svg xmlns="http://www.w3.org/2000/svg" width="16" height="16" data-big="true" viewBox="0 0 24 24"><path fill="#E57373" d="M19 11h-8v6h8zm4 8V5c0-1.12-.9-2-2-2H3a2 2 0 0 0-2 2v14a2 2 0 0 0 2 2h18a2 2 0 0 0 2-2m-2 0H3V4.97h18z"/></svg>

<!--
  - The MIT License (MIT)
  -
  - Copyright (c) 2015-2024 Elior "Mallowigi" Boukhobza
  -
  - Permission is hereby granted, free of charge, to any person obtaining a copy
  - of this software and associated documentation files (the "Software"), to deal
  - in the Software without restriction, including without limitation the rights
  - to use, copy, modify, merge, publish, distribute, sublicense, and/or sell
  - copies of the Software, and to permit persons to whom the Software is
  - furnished to do so, subject to the following conditions:
  -
  - The above copyright notice and this permission notice shall be included in all
  - copies or substantial portions of the Software.
  -
  - THE SOFTWARE IS PROVIDED "AS IS", WITHOUT WARRANTY OF ANY KIND, EXPRESS OR
  - IMPLIED, INCLUDING BUT NOT LIMITED TO THE WARRANTIES OF MERCHANTABILITY,
  - FITNESS FOR A PARTICULAR PURPOSE AND NONINFRINGEMENT. IN NO EVENT SHALL THE
  - AUTHORS OR COPYRIGHT HOLDERS BE LIABLE FOR ANY CLAIM, DAMAGES OR OTHER
  - LIABILITY, WHETHER IN AN ACTION OF CONTRACT, TORT OR OTHERWISE, ARISING FROM,
  - OUT OF OR IN CONNECTION WITH THE SOFTWARE OR THE USE OR OTHER DEALINGS IN THE
  - SOFTWARE.
  -->

<svg data-big="true" width='16' height='16' viewBox='0,0,24,24' xmlns='http://www.w3.org/2000/svg'>
  <path fill="#E57373"
        d="M19,11H11V17H19V11M23,19V5C23,3.88 22.1,3 21,3H3A2,2 0 0,0 1,5V19A2,2 0 0,0 3,21H21A2,2 0 0,0 23,19M21,19H3V4.97H21V19Z"/>
</svg>
